src/actions/24/minuet-scales.svg

<svg id="svg3521" version="1.1" viewBox="0 0 24 24" xmlns="http://www.w3.org/2000/svg">
    <defs id="defs4339">
        <style id="current-color-scheme" type="text/css">.ColorScheme-Text {
        color:#363636;
      }</style>
    </defs><g transform="translate(1,1)">
    <g id="layer1" transform="translate(0 -1030.4)">
        <path id="rect4315" class="ColorScheme-Text" transform="translate(0,1030.4)" d="m16 3v2h-13v1h13v1.6523a1.9977 1.9977 0 0 0-0.365-0.1523l-8e-3 -2e-3a1.9977 1.9977 0 0 0-2.488 1.334 1.9977 1.9977 0 0 0-0.041 0.168h-0.098v-2h-1v2h-9v1h9v1.652a1.9977 1.9977 0 0 0-0.365-0.152l-8e-3 -2e-3a1.9977 1.9977 0 0 0-2.4883 1.334 1.9977 1.9977 0 0 0-0.041 0.168h-0.0977v-2h-1v2h-5v1h5v1.654a1.9977 1.9977 0 0 0-0.3652-0.154l-0.0078-2e-3a1.9977 1.9977 0 0 0-2.4883 1.334 1.9977 1.9977 0 0 0-0.041 0.168h-2.0977v1h2.1445a1.9977 1.9977 0 0 0 1.3262 1.322 1.9977 1.9977 0 0 0 2.4902-1.322h10.0391v-1h-9.9961a1.9977 1.9977 0 0 0-0.0039-0.018v-2.982h0.1445a1.9977 1.9977 0 0 0 1.3285 1.322 1.9977 1.9977 0 0 0 2.488-1.322h6.039v-1h-5.996a1.9977 1.9977 0 0 0-4e-3 -0.018v-2.982h0.145a1.9977 1.9977 0 0 0 1.328 1.322 1.9977 1.9977 0 0 0 2.488-1.322h2.039v-1h-1.996a1.9977 1.9977 0 0 0-4e-3 -0.0176v-2.9824h2v-1h-2v-2h-1zm-0.943 5.457a0.97972 0.97972 0 0 1 0.255 0.0352l0.026 0.0078a0.97972 0.97972 0 0 1 0.652 1.2168 0.97972 0.97972 0 0 1-1.213 0.6602 0.97972 0.97972 0 0 1-0.668-1.209 0.97972 0.97972 0 0 1 0.948-0.711zm-4 4a0.97972 0.97972 0 0 1 0.255 0.035l0.026 8e-3a0.97972 0.97972 0 0 1 0.652 1.217 0.97972 0.97972 0 0 1-1.213 0.66 0.97972 0.97972 0 0 1-0.668-1.209 0.97972 0.97972 0 0 1 0.948-0.711zm-4.0004 4a0.97972 0.97972 0 0 1 0.2559 0.035l0.0254 8e-3a0.97972 0.97972 0 0 1 0.6523 1.217 0.97972 0.97972 0 0 1-1.2129 0.66 0.97972 0.97972 0 0 1-0.6679-1.209 0.97972 0.97972 0 0 1 0.9472-0.711z" fill="currentColor"/>
    </g>
</g></svg>

<svg xmlns="http://www.w3.org/2000/svg" viewBox="0 0 24 24">
    <path fill="currentColor" d="M16 3v2H3v1h13v1.652a1.998 1.998 0 0 0-.365-.152l-.008-.002a1.998 1.998 0 0 0-2.488 1.334 1.998 1.998 0 0 0-.041.168H13V7h-1v2H3v1h9v1.652a1.998 1.998 0 0 0-.365-.152l-.008-.002a1.998 1.998 0 0 0-2.488 1.334 1.998 1.998 0 0 0-.041.168H9v-2H8v2H3v1h5v1.654a1.998 1.998 0 0 0-.365-.154l-.008-.002a1.998 1.998 0 0 0-2.488 1.334 1.998 1.998 0 0 0-.041.168H3v1h2.144a1.998 1.998 0 0 0 1.327 1.322A1.998 1.998 0 0 0 8.96 18H19v-1H9.004A1.998 1.998 0 0 0 9 16.982V14h.145a1.998 1.998 0 0 0 1.328 1.322A1.998 1.998 0 0 0 12.961 14H19v-1h-5.996a1.998 1.998 0 0 0-.004-.018V10h.145a1.998 1.998 0 0 0 1.328 1.322A1.998 1.998 0 0 0 16.961 10H19V9h-1.996A1.998 1.998 0 0 0 17 8.982V6h2V5h-2V3h-1zm-.943 5.457a.98.98 0 0 1 .255.035l.026.008a.98.98 0 0 1 .652 1.217.98.98 0 0 1-1.213.66.98.98 0 0 1-.668-1.209.98.98 0 0 1 .948-.711zm-4 4a.98.98 0 0 1 .255.035l.026.008a.98.98 0 0 1 .652 1.217.98.98 0 0 1-1.213.66.98.98 0 0 1-.668-1.209.98.98 0 0 1 .948-.711zm-4 4a.98.98 0 0 1 .256.035l.025.008a.98.98 0 0 1 .652 1.217.98.98 0 0 1-1.213.66.98.98 0 0 1-.668-1.209.98.98 0 0 1 .948-.711z" style="color:#050505;opacity:.7" transform="translate(1 1)"/>
</svg>
